X:1
T:Meine_Seele_2_Sopran_solo_e_Coro_JE_Bach
T:Johann Ernst Bach (1722-1777)
T:Meine Seele erhebet den Herren
%%score 1 2 3 4
L:1/8
M:2/2
K:C
V:1 treble nm="Soprano"
V:2 treble nm="Alto"
V:3 treble-8 nm="Tenore"
V:4 bass nm="Basso"
V:1
 z8 | z8 | z8 | z8 | z8 | z8 | z8 | z8 | z8 | z8 | z8 | z8 | z8 | z8 | z8 | z8 | z8 | z8 | z8 | %19
w: |||||||||||||||||||
 z8 | z8 |"^Meine Seele erhebet den Herren" g2- (3g/c/d/(3_e/d/c/ f2- (3f/_B/c/(3d/c/B/ | %22
w: |||
 _e2 dc d"^Johann Ernst Bach (1722-1777)""^2.Soprano solo e Coro"_Bcd |[K:treble] _e6 _d2 | %24
w: * * * * denn er hat|gro- ße|
 c2 c2 c2 c2 | c2 f2 f2 _e2 |[K:treble] d2 dd _e2 =e2 | f2 f_A A2 G2 | G2 _E4 D2 | %29
w: Ding an mir ge-|tan, an mir ge-|tan, der da mäch- tig|ist und des Na- me|hei- * lig|
[K:treble] _E2 G_B _ed e2 | _e8- | e4 _e4 | d4 c4 | _B4 A4 | G4 z4 |] %35
w: ist, und des Na- * me|hei-|* lig||||
V:2
 z8 | z8 | z8 | z8 | z8 | z8 | z8 | z8 | z8 | z8 | z8 | z8 | z8 | z8 | z8 | z8 | z8 | z8 | z8 | %19
w: |||||||||||||||||||
 z8 | z8 | z8 | z4 z D_EF |[K:treble] G4 F2 _E2 | _EEEE FFGG | _A2 A2 _B2 F2 | %26
w: |||denn er hat|gro- * ße|Ding, denn er hat gro- ße Ding an|mir, an * *|
[K:treble] F2 FF G2 _B2 | A2 FF F2 _E2 | _B,2 C2 B,4 |[K:treble] _B,2 _EF G2 G2 | G4 _B4- | %31
w: tan, der da mäch- tig|ist und des Na- me|hei- * lig|ist, und des Na- me|hei- *|
 B4 _B4 | _B4 A4 | G4 _G4 | D4 z4 |] %35
w: * lig|ist, hei-|* lig|ist.|
V:3
 z8 | z8 | z8 | z8 | z8 | z8 | z8 | z8 | z8 | z8 | z8 | z8 | z8 | z8 | z8 | z8 | z8 | z8 | z8 | %19
w: |||||||||||||||||||
 z8 | z8 | z8 | z8 |[K:treble-8] z GGG _AA_BB | cccc ddee | f2 c2 _B2 c2 | %26
w: ||||denn er hat gro- ße Ding an|mir, denn er hat gro- ße Ding an|mir, an mir ge-|
[K:treble-8] _B2 BB B2 _d2 | c2 _Bd B2 B2 | _E2 _G4 F2 |[K:treble-8] G2 _BB G2 c2 | _B4 g4- | %31
w: tan, der da mäch- tig|ist und des Na- me|hei- * lig|ist, und des Na.me hei-||
 g4 g4 | f4 d4- | d6 c2 | _B4 z4 |] %35
w: * lig|ist, hei-|* lig|ist.|
V:4
 z8 | z8 | z8 | z8 | z8 | z8 | z8 | z8 | z8 | z8 | z8 | z8 | z8 | z8 | z8 | z8 | z8 | z8 | z8 | %19
w: |||||||||||||||||||
 z8 | z8 | z8 | z8 |[K:bass] z _E,E,E, F,F,G,G, | _A,2 A,2 A,2 G,2 | F,2 F,2 G,2 A,2 | %26
w: ||||denn er hat gro- ße Ding an|mir, an mir ge-|tan, an mir ge-|
[K:bass] _B,2 _A,A, G,2 _G,2 | D,2 _B,D, _E,2 E,2 | _E,2 A,,2 _B,,4 |[K:bass] _E,2 E,D, C,2 C,2 | %30
w: tan, der da mäch- tig|ist und des Na- me|hei- * lig|ist und des Na- me|
 _E,8 | G,4 _E,4 | _B,4 _G,4 | G,4 D,4 | _B,,4 z4 |] %35
w: hei-|* lig|ist, hei-|* lig|ist.|

